icons/desktop/16/svg/cryptominer-16.svg

<svg width="16" height="16" viewBox="0 0 16 16" fill="none" xmlns="http://www.w3.org/2000/svg">
<path fill-rule="evenodd" clip-rule="evenodd" d="M6.2657 0.137451C7.40059 -0.0455311 8.57881 -0.0454496 9.7237 0.135498C10.3097 0.227498 10.7639 0.665647 10.9249 1.21265C10.9369 1.21564 10.949 1.21651 10.961 1.21851C13.354 1.70351 15.3151 3.57039 15.9561 5.97339C16.0751 6.41935 15.9443 6.89468 15.6124 7.21265C15.2835 7.52954 14.8022 7.64341 14.3643 7.50757C13.1053 7.11957 11.8167 6.86272 10.5167 6.70972C10.5092 6.71668 10.4998 6.72142 10.4923 6.72827L10.4786 13.7556C10.4753 14.9968 9.46899 16.0007 8.22859 16.0007H7.77155C6.53107 16.0004 5.52484 14.9953 5.52155 13.7556L5.50495 6.71753C5.49783 6.71094 5.48951 6.70567 5.48249 6.69897C4.18249 6.85397 2.89284 7.12054 1.63484 7.50854C1.51293 7.54548 1.38669 7.56421 1.26179 7.56421C0.939905 7.56413 0.62469 7.44156 0.387765 7.21265C0.0567998 6.89468 -0.0749201 6.41935 0.0440155 5.97339V5.97144C0.684015 3.57144 2.63944 1.70746 5.02644 1.22046C5.04233 1.2175 5.05841 1.2166 5.07331 1.21362C5.22928 0.662749 5.6739 0.231584 6.2657 0.137451ZM8.99128 7.20288C8.66205 7.23266 8.33101 7.25073 8.00105 7.25073C7.66992 7.25073 7.33732 7.23301 7.00593 7.20288L7.02155 13.7517C7.02279 14.1652 7.35886 14.5004 7.77155 14.5007H8.22859C8.64186 14.5007 8.97736 14.1661 8.97859 13.7517L8.99128 7.20288ZM5.00007 2.78003C3.45114 3.21201 2.1762 4.40115 1.62116 5.94604C2.73412 5.62607 3.86012 5.41823 5.00007 5.27124V2.78003ZM11.0001 5.27515C12.138 5.42214 13.269 5.62709 14.378 5.94507C13.822 4.40116 12.548 3.21401 11.0001 2.78003V5.27515ZM8.00007 1.50073C7.49807 1.50073 6.99402 1.53992 6.50202 1.61792L6.50007 5.62964C7.51205 5.79263 8.51914 5.78756 9.49812 5.63257L9.50007 5.62866V1.62085C8.9971 1.53986 8.49605 1.50073 8.00007 1.50073Z" fill="black"/>
</svg>

<!-- This Source Code Form is subject to the terms of the Mozilla Public
   - License, v. 2.0. If a copy of the MPL was not distributed with this
   - file, You can obtain one at http://mozilla.org/MPL/2.0/. -->
<svg xmlns="http://www.w3.org/2000/svg" width="16" height="16" fill="context-fill" fill-opacity="context-fill-opacity" viewBox="0 0 16 16">
    <path fill-rule="evenodd" d="M6.266.137A11 11 0 0 1 9.724.135a1.51 1.51 0 0 1 1.2 1.078l.037.006c2.393.485 4.354 2.351 4.995 4.754.12.446-.012.922-.344 1.24-.328.317-.81.43-1.248.295a21.6 21.6 0 0 0-3.847-.798q-.012.009-.025.018l-.013 7.028A2.25 2.25 0 0 1 8.229 16h-.457a2.25 2.25 0 0 1-2.25-2.245l-.017-7.038-.023-.019c-1.3.155-2.59.422-3.847.81a1.258 1.258 0 0 1-1.247-.296 1.27 1.27 0 0 1-.344-1.24v-.002c.64-2.4 2.595-4.264 4.982-4.75q.024-.004.047-.007c.156-.551.6-.982 1.193-1.077M8.99 7.203q-.494.046-.99.048-.497-.002-.995-.048l.016 6.549a.75.75 0 0 0 .75.749h.457a.75.75 0 0 0 .75-.75zM5.001 2.78c-1.55.432-2.825 1.621-3.38 3.166a23 23 0 0 1 3.38-.675zm6 2.495c1.137.147 2.268.352 3.377.67A5.08 5.08 0 0 0 11 2.78zM8 1.501c-.503 0-1.007.039-1.499.117L6.5 5.63a9.5 9.5 0 0 0 2.998.003l.002-.004V1.62A9.4 9.4 0 0 0 8 1.5" clip-rule="evenodd" />
</svg>
